www/assets/icons/handshake.svg

<svg width="24" height="24" viewBox="0 0 24 24" xmlns="http://www.w3.org/2000/svg" fill='currentColor'><path d="M16.4801 10.4126C16.0901 10.8026 15.4401 10.8026 15.0501 10.4126L10.5801 5.95265L3.53005 12.9926L2.87005 12.3626C1.70005 11.1926 1.70005 9.29265 2.87005 8.12265L7.11005 3.88265C8.28005 2.71265 10.1801 2.71265 11.3501 3.88265L16.4801 9.00265C16.8701 9.39265 16.8701 10.0226 16.4801 10.4126ZM17.1801 8.29265C17.9601 9.07265 17.9601 10.3426 17.1801 11.1226C15.9101 12.3926 14.5701 11.3426 14.3501 11.1226L10.5901 7.36265L5.02005 12.9326C4.63005 13.3226 4.63005 13.9526 5.02005 14.3426C5.41005 14.7326 6.04005 14.7326 6.44005 14.3426L11.0601 9.72265L11.7701 10.4326L7.15005 15.0526C6.76005 15.4426 6.76005 16.0726 7.15005 16.4626C7.54005 16.8526 8.17005 16.8526 8.57005 16.4626L13.1901 11.8426L13.9001 12.5526L9.28005 17.1726C8.89005 17.5626 8.89005 18.1926 9.28005 18.5826C9.67005 18.9726 10.3001 18.9726 10.6901 18.5826L15.3101 13.9626L16.0201 14.6726L11.4001 19.2926C11.0101 19.6826 11.0101 20.3126 11.4001 20.7026C11.7901 21.0926 12.4201 21.0926 12.8101 20.7026L21.1301 12.3626C22.3001 11.1926 22.3001 9.29265 21.1301 8.12265L16.8901 3.88265C15.7401 2.73265 13.8801 2.71265 12.7101 3.82265L17.1801 8.29265Z"/></svg>

<svg xmlns="http://www.w3.org/2000/svg" width="24" height="24" viewBox="0 0 24 24" fill='currentColor'><path d="M16.48 10.413c-.39.39-1.04.39-1.43 0l-4.47-4.46-7.05 7.04-.66-.63a3 3 0 0 1 0-4.24l4.24-4.24a3 3 0 0 1 4.24 0l5.13 5.12c.39.39.39 1.02 0 1.41m.7-2.12c.78.78.78 2.05 0 2.83-1.27 1.27-2.61.22-2.83 0l-3.76-3.76-5.57 5.57a.996.996 0 0 0 0 1.41c.39.39 1.02.39 1.42 0l4.62-4.62.71.71-4.62 4.62a.996.996 0 0 0 0 1.41c.39.39 1.02.39 1.42 0l4.62-4.62.71.71-4.62 4.62a.996.996 0 1 0 1.41 1.41l4.62-4.62.71.71-4.62 4.62a.996.996 0 1 0 1.41 1.41l8.32-8.34a3 3 0 0 0 0-4.24l-4.24-4.24a3 3 0 0 0-4.18-.06z"/></svg>
